X: 579
T: Tan meizi
L: 1/8
M: 2/4
K: G
d2B A [I:setbarnb 1]| 
d2B A | 
GG2B | 
A4 | 
d2B A | 
d2B A | 
GG2B | 
A4 | 
B A B G | 
A2G2 |]

@@@ Tune index: 9453
